src/lib/packages/icons/src/assets/line/receipt-percent-alt.svg

<svg width="24" height="24" viewBox="0 0 24 24" fill="none" xmlns="http://www.w3.org/2000/svg">
<path d="M15.03 10.03L10.03 15.03C9.88403 15.176 9.692 15.25 9.5 15.25C9.308 15.25 9.11597 15.177 8.96997 15.03C8.67697 14.737 8.67697 14.262 8.96997 13.969L13.97 8.969C14.263 8.676 14.738 8.676 15.031 8.969C15.323 9.262 15.323 9.738 15.03 10.03ZM9.52002 10.5C10.073 10.5 10.52 10.052 10.52 9.5C10.52 8.948 10.073 8.5 9.52002 8.5H9.51001C8.95801 8.5 8.51501 8.948 8.51501 9.5C8.51501 10.052 8.96802 10.5 9.52002 10.5ZM14.52 13.5H14.51C13.958 13.5 13.515 13.948 13.515 14.5C13.515 15.052 13.968 15.5 14.52 15.5C15.073 15.5 15.52 15.052 15.52 14.5C15.52 13.948 15.072 13.5 14.52 13.5ZM20.75 5.379V18.622C20.75 19.289 20.379 19.889 19.782 20.187C19.187 20.485 18.485 20.422 17.95 20.022L16.5909 19.002C16.2949 18.78 15.873 18.809 15.611 19.072L13.5909 21.091C13.1529 21.53 12.576 21.749 12 21.749C11.424 21.749 10.8481 21.53 10.4091 21.091L8.38904 19.072C8.12604 18.81 7.70496 18.781 7.40796 19.003L6.05005 20.022C5.51605 20.422 4.81302 20.485 4.21802 20.187C3.62102 19.889 3.25 19.289 3.25 18.622V5.379C3.25 4.712 3.62102 4.112 4.21802 3.814C4.81302 3.515 5.51605 3.57901 6.05005 3.97901L7.40906 4.999C7.70406 5.221 8.12704 5.19199 8.38904 4.92899L10.4091 2.91001C11.2861 2.03301 12.7139 2.03301 13.5909 2.91001L15.611 4.93C15.874 5.192 16.295 5.221 16.592 4.999L17.95 3.98002C18.485 3.58002 19.187 3.51601 19.782 3.81501C20.379 4.11201 20.75 4.711 20.75 5.379ZM19.25 5.379C19.25 5.244 19.1631 5.181 19.1121 5.155C19.0591 5.129 18.959 5.09699 18.85 5.17899L17.491 6.19901C16.602 6.86501 15.338 6.77699 14.55 5.98999L12.53 3.97001C12.237 3.67801 11.762 3.67801 11.469 3.97001L9.44897 5.98902C8.66197 6.77602 7.39503 6.864 6.50903 6.198L5.14905 5.17801C5.04205 5.09601 4.93996 5.128 4.88696 5.154C4.83596 5.18 4.74902 5.243 4.74902 5.378V18.621C4.74902 18.756 4.83596 18.819 4.88696 18.845C4.93996 18.871 5.04105 18.903 5.14905 18.821L6.50806 17.801C6.90706 17.502 7.38196 17.355 7.85596 17.355C8.43696 17.355 9.01595 17.577 9.44995 18.01L11.47 20.03C11.753 20.313 12.247 20.313 12.531 20.03L14.551 18.011C15.338 17.224 16.604 17.136 17.491 17.802L18.851 18.822C18.959 18.904 19.06 18.871 19.113 18.846C19.164 18.82 19.251 18.757 19.251 18.622V5.379H19.25Z" fill="currentColor"/>
</svg>

<svg xmlns="http://www.w3.org/2000/svg" width="24" height="24" fill="none"><path fill="currentColor" d="m15.03 10.03-5 5a.748.748 0 0 1-1.06 0 .75.75 0 0 1 0-1.061l5-5a.75.75 0 1 1 1.06 1.061Zm-5.51.47a1 1 0 1 0 0-2h-.01a.996.996 0 0 0-.995 1c0 .552.453 1 1.005 1Zm5 3h-.01a.996.996 0 0 0-.995 1c0 .552.453 1 1.005 1a1 1 0 1 0 0-2Zm6.23-8.121v13.243a1.74 1.74 0 0 1-.968 1.565 1.741 1.741 0 0 1-1.832-.165l-1.36-1.02a.753.753 0 0 0-.979.07l-2.02 2.019a2.24 2.24 0 0 1-1.591.658 2.242 2.242 0 0 1-1.59-.658l-2.021-2.019a.756.756 0 0 0-.981-.069L6.05 20.022c-.534.4-1.237.463-1.832.165a1.74 1.74 0 0 1-.968-1.565V5.379c0-.667.371-1.267.968-1.565a1.739 1.739 0 0 1 1.832.165l1.36 1.02a.753.753 0 0 0 .979-.07l2.02-2.019a2.253 2.253 0 0 1 3.182 0l2.02 2.02a.755.755 0 0 0 .981.069L17.95 3.98a1.74 1.74 0 0 1 1.832-.165c.597.297.968.896.968 1.564Zm-1.5 0a.241.241 0 0 0-.138-.224.238.238 0 0 0-.262.024l-1.359 1.02a2.263 2.263 0 0 1-2.941-.209l-2.02-2.02a.752.752 0 0 0-1.061 0l-2.02 2.019a2.261 2.261 0 0 1-2.94.209l-1.36-1.02a.238.238 0 0 0-.262-.024.241.241 0 0 0-.138.224v13.243c0 .135.087.198.138.224a.238.238 0 0 0 .262-.024l1.36-1.02a2.243 2.243 0 0 1 1.347-.446c.581 0 1.16.222 1.594.655l2.02 2.02a.77.77 0 0 0 1.061 0l2.02-2.019a2.261 2.261 0 0 1 2.94-.209l1.36 1.02a.24.24 0 0 0 .262.024.241.241 0 0 0 .138-.224V5.379h-.001Z"/></svg>
